X:1
T:St. Fabian, 77.77 D
T:St. Fabian, 77.77 D
T:Joseph Barnby (1838-1896)
T:Public Domain Courtesy of the Cyber Hymnal™
C:Joseph Barnby (1838-1896)
Z:Public Domain
Z:Courtesy of the Cyber Hymnal™
%%score ( 1 2 ) ( 3 4 )
L:1/8
Q:1/4=110
M:4/4
K:Bb
V:1 treble 
V:2 treble 
V:3 bass 
V:4 bass 
V:1
 [DG]2 [DA]2 | [DG]2 [D^F]2 [FA]3 [FB] | [^FA]2 G2 [DB]2 [Ec]2 | [Dd]2 [FB]2 [Ec]2 [Ed]2 | %4
 [DB]4 [DB]2 [DB]2 | [EB]2 [EA]2 [EA]2 [=EG]2 | G2 ^F2 [DF]2 [DG]2 | [^C^F]2 [D=F]2 [C^D]3 [CE] | %8
 !fermata!D4 ||[K:G] [B,D]2 [DE]2 | [CE]2 [CF]2 [CG]2 [CA]2 | [C^A]2 [B,B]2 [DB]2 [^DB]2 | %12
 [EB]2 [=Fd]2 [Ec]2 E2 | [FA]4 G2 [=FG]2 | [EG]2 [EA]2 [FB]2 [FA]2 | [Gd]2 [=F^d]2 [Ee]2 [E=d]2 | %16
 [Ec]2 E2 [FA]3 G | G4 |] %18
V:2
 x4 | x8 | x2 G2 x4 | x8 | x8 | x8 | D4 x4 | x8 | D4 ||[K:G] x4 | x8 | x8 | x6 E2 | x4 G2 x2 | x8 | %15
 x8 | x2 E2 x G x2 | G4 |] %18
V:3
 [G,B,]2 [G,C]2 | [D,B,]2 [D,A,]2 [D,C]3 [D,D] | C2 B,2 [=G,B,]2 [_G,B,]2 | %3
 [F,B,]2 [F,D]2 [F,A,]2 [F,A,]2 | [B,,B,]4 [B,,D]2 [B,,D]2 | [C,D]2 [C,C]2 [C,C]2 [^C,B,]2 | %6
 B,2 A,2 [D,A,]2 [B,,G,]2 | [A,,A,]2 [A,,G,]2 [A,,G,]3 [A,,G,] | !fermata![D,^F,]4 || %9
[K:G] [G,,G,]2 [G,,B,]2 | [D,A,]2 [D,A,]2 [D,E,]2 [D,F,]2 | F,2 G,2 [B,,G,]2 [B,,G,]2 | %12
 [C,G,]2 [C,^G,]2 [C,A,]2 [C,C]2 | [D,C]4 [E,B,]2 [D,B,]2 | [C,C]2 [C,E]2 [C_E]2 [CE]2 | %15
 [B,D]2 [A,C]2 [^G,B,]2 [G,B,]2 | [A,C]2 [A,C]2 [D,C]3 [G,,B,] | [G,,B,]4 |] %18
V:4
 x4 | x8 | _G,4 x4 | x8 | x8 | x8 | D,4 x4 | x8 | x4 ||[K:G] x4 | x8 | G,,4 x4 | x8 | x8 | x8 | %15
 x8 | x8 | x4 |] %18

